content/packer/v1.10.x/img/integrations/digitalocean.svg

<svg width="110px" height="19px" viewBox="0 0 110 19" version="1.1" xmlns="http://www.w3.org/2000/svg" xmlns:xlink="http://www.w3.org/1999/xlink">
    <desc>DigitalOcean Logo</desc>
    <defs>
        <polygon id="path-1" points="18.539185 0.160966667 0 0.160966667 0 18.7 18.539185 18.7"></polygon>
        <polygon id="path-3" points="0 18.7223667 110 18.7223667 110 0.183333333 0 0.183333333"></polygon>
    </defs>
    <g id="Page-1" stroke="none" stroke-width="1" fill="none" fill-rule="evenodd">
        <g>
            <g id="Group-3" transform="translate(0.000000, 0.022367)">
                <mask id="mask-2" fill="white">
                    <use xlink:href="#path-1"></use>
                </mask>
                <g id="Clip-2"></g>
                <path d="M9.26960833,18.7000183 L9.26960833,15.109985 C13.0794583,15.109985 16.0252583,11.339185 14.570875,7.33390167 C14.0320583,5.85036833 12.8486417,4.66731833 11.364925,4.12886833 C7.36019167,2.675585 3.590675,5.62065167 3.590125,9.42976833 C3.590125,9.42976833 3.58975833,9.43050167 3.58920833,9.43050167 L-9.16666667e-05,9.43050167 C-9.16666667e-05,3.36106833 5.86364167,-1.36489833 12.2238417,0.620601667 C15.003175,1.48831833 17.2117917,3.696935 18.0795083,6.47626833 C20.0650083,12.8364683 15.339225,18.7000183 9.26960833,18.7000183" id="Fill-1" fill="#0080FF" mask="url(#mask-2)"></path>
            </g>
            <path d="M9.27784,15.1414817 L5.69844,15.1414817 L5.69844,11.5631817 C5.69844,11.5631817 5.69880667,11.5626317 5.69899,11.5626317 L9.27729,11.5626317 C9.27765667,11.5626317 9.27784,11.562815 9.27784,11.562815 L9.27784,15.1414817 Z" id="Fill-4" fill="#0080FF"></path>
            <polygon id="Fill-6" fill="#0080FF" points="5.697835 17.891665 2.94856833 17.891665 2.947835 17.8909317 2.947835 15.1414817 5.698385 15.1414817 5.698385 17.8909317"></polygon>
            <path d="M2.94979667,15.1414817 L0.645113333,15.1414817 C0.644196667,15.1414817 0.643463333,15.1407483 0.643463333,15.1407483 L0.643463333,12.837165 C0.643463333,12.837165 0.644196667,12.835515 0.645113333,12.835515 L2.94814667,12.835515 C2.94906333,12.835515 2.94979667,12.8362483 2.94979667,12.8362483 L2.94979667,15.1414817 Z" id="Fill-8" fill="#0080FF"></path>
            <path d="M27.6794833,6.23566167 L28.7340167,6.23566167 C29.90735,6.23566167 30.8733333,6.466295 31.60575,6.922245 C32.41865,7.412295 32.83115,8.34527833 32.83115,9.69442833 C32.83115,11.084095 32.4177333,12.0590617 31.6028167,12.5923783 L31.6020833,12.5923783 C30.90065,13.056395 29.9407167,13.2916117 28.7486833,13.2916117 L27.6794833,13.2916117 L27.6794833,6.23566167 Z M33.0029333,5.543395 C31.9416167,4.806945 30.6205167,4.43367833 29.0770333,4.43367833 L25.7170833,4.43367833 L25.7170833,15.093595 L29.0770333,15.093595 C30.6166667,15.093595 31.9381333,14.6996117 33.0042167,13.9230117 C33.5842833,13.5116117 34.04005,12.9361283 34.35905,12.2136117 C34.6764,11.494945 34.8371833,10.6472117 34.8371833,9.69442833 C34.8371833,8.752645 34.6764,7.91591167 34.3588667,7.20732833 C34.0398667,6.495445 33.5837333,5.93572833 33.0029333,5.543395 L33.0029333,5.543395 Z" id="Fill-10" fill="#0080FF"></path>
            <path d="M37.1762783,4.30233833 C36.853245,4.30233833 36.574945,4.41692167 36.3509117,4.64132167 C36.1241283,4.85728833 36.0091783,5.13118833 36.0091783,5.454955 C36.0091783,5.77798833 36.1235783,6.05592167 36.349445,6.28178833 C36.574945,6.507655 36.853245,6.62223833 37.1762783,6.62223833 C37.498945,6.62223833 37.7770617,6.507655 38.0031117,6.28178833 C38.2291617,6.055555 38.3435617,5.77762167 38.3435617,5.454955 C38.3435617,5.131555 38.2286117,4.857655 38.0031117,4.64278833 C37.7770617,4.41692167 37.498945,4.30233833 37.1762783,4.30233833" id="Fill-12" fill="#0080FF"></path>
            <mask id="mask-4" fill="white">
                <use xlink:href="#path-3"></use>
            </mask>
            <g id="Clip-15"></g>
            <polygon id="Fill-14" fill="#0080FF" mask="url(#mask-4)" points="36.2134667 15.09365 38.1027167 15.09365 38.1027167 7.5856 36.2134667 7.5856"></polygon>
            <path d="M44.46827,12.64714 C44.1380867,13.0220567 43.7140367,13.2039233 43.1721033,13.2039233 C42.6305367,13.2039233 42.20887,13.0220567 41.8836367,12.6475067 C41.5596867,12.2749733 41.3952367,11.78089 41.3952367,11.17919 C41.3952367,10.5677733 41.5596867,10.0674567 41.88382,9.69217333 C42.2048367,9.32074 42.6382367,9.13245667 43.1721033,9.13245667 C43.71367,9.13245667 44.13772,9.31542333 44.4680867,9.69290667 C44.7969867,10.06819 44.96382,10.56814 44.96382,11.17919 C44.96382,11.7805233 44.7969867,12.2746067 44.46827,12.64714 L44.46827,12.64714 Z M44.96382,8.21285667 C44.3942033,7.70612333 43.7578533,7.41059 43.07017,7.41059 C42.0271867,7.41059 41.1603867,7.77139 40.4941533,8.48217333 C39.81912,9.18727333 39.4766533,10.0947733 39.4766533,11.17919 C39.4766533,12.2388567 39.8138033,13.1434233 40.47967,13.8685067 C41.1508533,14.5701233 42.02242,14.92579 43.07017,14.92579 C43.79837,14.92579 44.4246367,14.7230233 44.93467,14.3226233 L44.93467,14.4953233 C44.93467,15.11829 44.7678367,15.60284 44.4389367,15.93559 C44.1104033,16.26834 43.65482,16.43664 43.0848367,16.43664 C42.21272,16.43664 41.6662033,16.09399 41.0007033,15.1945567 L39.7142533,16.43059 L39.7489033,16.4791733 C40.0266533,16.8693067 40.4523533,17.2508233 41.01427,17.6138233 C41.5761867,17.97499 42.28257,18.1585067 43.1139867,18.1585067 C44.2354367,18.1585067 45.1429367,17.81274 45.8110033,17.1311067 C46.48292,16.4456233 46.8237367,15.52804 46.8237367,14.4042067 L46.8237367,7.58567333 L44.96382,7.58567333 L44.96382,8.21285667 Z" id="Fill-16" fill="#0080FF" mask="url(#mask-4)"></path>
            <polygon id="Fill-17" fill="#0080FF" mask="url(#mask-4)" points="48.4405167 15.09365 50.3297667 15.09365 50.3297667 7.5856 48.4405167 7.5856"></polygon>
            <path d="M49.4034017,4.30233833 C49.0803683,4.30233833 48.8022517,4.41692167 48.578035,4.64132167 C48.3512517,4.85728833 48.2363017,5.13118833 48.2363017,5.454955 C48.2363017,5.77798833 48.3507017,6.05592167 48.5765683,6.28178833 C48.8022517,6.507655 49.0803683,6.62223833 49.4034017,6.62223833 C49.7260683,6.62223833 50.004185,6.507655 50.230235,6.28178833 C50.456285,6.055555 50.570685,5.77762167 50.570685,5.454955 C50.570685,5.131555 50.455735,4.857655 50.230235,4.64278833 C50.004185,4.41692167 49.7260683,4.30233833 49.4034017,4.30233833" id="Fill-18" fill="#0080FF" mask="url(#mask-4)"></path>
            <path d="M54.47068,5.557035 L52.6107633,5.557035 L52.6107633,7.58561833 L51.5307467,7.58561833 L51.5307467,9.307485 L52.6107633,9.307485 L52.6107633,12.4261683 C52.6107633,13.402235 52.8056467,14.1003683 53.1904633,14.5015017 C53.57638,14.904285 54.26113,15.1085183 55.22638,15.1085183 C55.5330967,15.1085183 55.8420133,15.0982517 56.1439633,15.078635 L56.2292133,15.0729517 L56.2292133,13.352185 L55.5814967,13.386285 C55.1315967,13.386285 54.8312967,13.3072683 54.68848,13.1518017 C54.5440133,12.993585 54.47068,12.6593683 54.47068,12.1583183 L54.47068,9.307485 L56.2292133,9.307485 L56.2292133,7.58561833 L54.47068,7.58561833 L54.47068,5.557035 Z" id="Fill-19" fill="#0080FF" mask="url(#mask-4)"></path>
            <polygon id="Fill-20" fill="#0080FF" mask="url(#mask-4)" points="65.0877333 15.09365 66.9771667 15.09365 66.9771667 4.43355 65.0877333 4.43355"></polygon>
            <path d="M86.06389,12.40921 C85.7258233,12.7877933 85.38024,13.1161433 85.1138567,13.2868267 L85.1138567,13.2871933 C84.85279,13.45476 84.5231567,13.5398267 84.1343067,13.5398267 C83.5775233,13.5398267 83.1298233,13.3372433 82.7653567,12.9194267 C82.4027233,12.50436 82.2186567,11.97031 82.2186567,11.33231 C82.2186567,10.69431 82.40034,10.1611767 82.75839,9.74886 C83.11809,9.33397667 83.5634067,9.13231 84.11964,9.13231 C84.7281233,9.13231 85.3696067,9.51071 85.9196067,10.1606267 L87.1681067,8.96327667 C86.3539233,7.90361 85.3155233,7.41044333 84.0758233,7.41044333 C83.0385233,7.41044333 82.1394567,7.78847667 81.4035567,8.53317667 C80.6715067,9.27274333 80.3002567,10.2145267 80.3002567,11.33231 C80.3002567,12.4500933 80.67114,13.39426 81.4024567,14.1387767 C82.1343233,14.8838433 83.0341233,15.2616933 84.0758233,15.2616933 C85.4438567,15.2616933 86.54789,14.6711767 87.2922233,13.5893267 L86.06389,12.40921 Z" id="Fill-21" fill="#0080FF" mask="url(#mask-4)"></path>
            <path d="M89.6888483,10.402205 C89.7795983,10.0432383 89.9451483,9.74403833 90.182015,9.511755 C90.4381317,9.259855 90.7712483,9.13243833 91.172565,9.13243833 C91.6305317,9.13243833 91.984915,9.26242167 92.2261817,9.520005 C92.4498483,9.75833833 92.5757983,10.0549717 92.6021983,10.402205 L89.6888483,10.402205 Z M93.8178817,8.634505 C93.550215,8.26123833 93.1851983,7.96093833 92.7330983,7.74112167 C92.282465,7.521855 91.757215,7.41057167 91.1721983,7.41057167 C90.1174817,7.41057167 89.2545317,7.79978833 88.6066317,8.56758833 C87.9777983,9.32988833 87.659165,10.2769883 87.659165,11.383405 C87.659165,12.521355 88.0087817,13.462955 88.6984817,14.1825383 C89.384515,14.898455 90.3028317,15.2616383 91.4273983,15.2616383 C92.701565,15.2616383 93.7469317,14.7464717 94.534715,13.7300717 L94.5772483,13.6754383 L93.344515,12.491105 C93.2302983,12.6287883 93.0687817,12.7851717 92.9208317,12.924505 C92.7341983,13.100505 92.5589317,13.2365383 92.371565,13.329855 C92.0892317,13.4704717 91.7724317,13.5397717 91.4182317,13.5397717 C90.8946317,13.5397717 90.4612317,13.3857717 90.129765,13.0821717 C89.8199317,12.798005 89.6387983,12.4150217 89.5905817,11.941655 L94.5959483,11.941655 L94.6126317,11.2521383 C94.6126317,10.7642883 94.5464483,10.2940383 94.4151817,9.854405 C94.2840983,9.41422167 94.083165,9.00373833 93.8178817,8.634505 L93.8178817,8.634505 Z" id="Fill-22" fill="#0080FF" mask="url(#mask-4)"></path>
            <path d="M97.7189767,12.2246117 C97.9332933,12.0753783 98.2359767,11.999845 98.6191433,11.999845 C99.0739933,11.999845 99.55616,12.0909617 100.053177,12.271545 L100.053177,13.007995 C99.6426933,13.3895117 99.09416,13.583295 98.4224267,13.583295 C98.09536,13.583295 97.84126,13.5108783 97.6665433,13.3669617 C97.49476,13.226345 97.4115267,13.0472283 97.4115267,12.8208117 C97.4115267,12.5632283 97.5121767,12.3679783 97.7189767,12.2246117 M101.073427,8.14746167 L101.073243,8.14746167 C100.500693,7.658695 99.7092433,7.41046167 98.72126,7.41046167 C98.09261,7.41046167 97.5048433,7.548695 96.9729933,7.818195 C96.4809267,8.06771167 95.9978433,8.480945 95.6909433,9.021595 L95.71001,9.044695 L96.92001,10.2028117 C97.4181267,9.408245 97.9723433,9.13232833 98.70696,9.13232833 C99.1014933,9.13232833 99.4292933,9.238295 99.68101,9.44711167 C99.9314433,9.65427833 100.053177,9.91791167 100.053177,10.252495 L100.053177,10.6169617 C99.58476,10.4743283 99.1176267,10.4022783 98.66296,10.4022783 C97.7228267,10.4022783 96.9577767,10.6235617 96.3894433,11.0597117 C95.8137767,11.501545 95.5220933,12.1331283 95.5220933,12.9377783 C95.5220933,13.6430617 95.7681267,14.2161617 96.2552433,14.6422283 C96.7460267,15.052895 97.3598267,15.2615283 98.07941,15.2615283 C98.7986267,15.2615283 99.4716433,14.9716783 100.08251,14.475395 L100.08251,15.093595 L101.94261,15.093595 L101.94261,10.2671617 C101.94261,9.353245 101.650193,8.64026167 101.073427,8.14746167" id="Fill-23" fill="#0080FF" mask="url(#mask-4)"></path>
            <path d="M109.210622,8.294495 C108.684455,7.708195 107.944888,7.41046167 107.012272,7.41046167 C106.262988,7.41046167 105.654322,7.62587833 105.198922,8.05047833 L105.198922,7.58572833 L103.346155,7.58572833 L103.346155,15.093595 L105.235405,15.093595 L105.235405,10.9528283 C105.235405,10.3841283 105.370888,9.932395 105.637822,9.610095 C105.904022,9.28852833 106.270138,9.13232833 106.756888,9.13232833 C107.184972,9.13232833 107.509472,9.27202833 107.748538,9.558945 C107.989072,9.847695 108.110805,10.2451617 108.110805,10.741445 L108.110805,15.093595 L110.000055,15.093595 L110.000055,10.741445 C110.000055,9.70157833 109.734405,8.878595 109.210622,8.294495" id="Fill-24" fill="#0080FF" mask="url(#mask-4)"></path>
            <path d="M59.3589883,12.2246117 C59.573305,12.0753783 59.8759883,11.999845 60.2589717,11.999845 C60.714005,11.999845 61.1961717,12.0909617 61.6931883,12.271545 L61.6931883,13.007995 C61.2825217,13.3895117 60.7341717,13.583295 60.0624383,13.583295 C59.7353717,13.583295 59.4810883,13.5108783 59.3063717,13.3669617 C59.1347717,13.226345 59.051355,13.0472283 59.051355,12.8208117 C59.051355,12.5632283 59.152005,12.3679783 59.3589883,12.2246117 M62.7134383,8.14746167 L62.713255,8.14746167 C62.140705,7.658695 61.3490717,7.41046167 60.3612717,7.41046167 C59.7324383,7.41046167 59.1446717,7.548695 58.613005,7.818195 C58.1209383,8.06771167 57.637855,8.480945 57.330955,9.021595 L57.3500217,9.044695 L58.5598383,10.2028117 C59.057955,9.408245 59.6121717,9.13232833 60.3467883,9.13232833 C60.741505,9.13232833 61.069305,9.238295 61.3210217,9.44711167 C61.571455,9.65427833 61.6931883,9.91791167 61.6931883,10.252495 L61.6931883,10.6169617 C61.2247717,10.4743283 60.7576383,10.4022783 60.3027883,10.4022783 C59.3628383,10.4022783 58.5977883,10.6235617 58.029455,11.0597117 C57.4537883,11.501545 57.162105,12.1331283 57.162105,12.9377783 C57.162105,13.6430617 57.407955,14.2161617 57.895255,14.6422283 C58.3860383,15.052895 58.9998383,15.2615283 59.7192383,15.2615283 C60.4386383,15.2615283 61.1114717,14.9716783 61.7223383,14.475395 L61.7223383,15.093595 L63.5826217,15.093595 L63.5826217,10.2671617 C63.5826217,9.353245 63.290205,8.64026167 62.7134383,8.14746167" id="Fill-25" fill="#0080FF" mask="url(#mask-4)"></path>
            <path d="M73.831945,6.20022333 C71.8697283,6.20022333 70.2732617,7.79650667 70.2732617,9.75890667 C70.2732617,11.7213067 71.8697283,13.31759 73.831945,13.31759 C75.7941617,13.31759 77.3906283,11.7213067 77.3906283,9.75890667 C77.3906283,7.79650667 75.7941617,6.20022333 73.831945,6.20022333 M73.831945,15.2543233 C70.8018117,15.2543233 68.3365283,12.78904 68.3365283,9.75890667 C68.3365283,6.72859 70.8018117,4.26349 73.831945,4.26349 C76.8620783,4.26349 79.3273617,6.72859 79.3273617,9.75890667 C79.3273617,12.78904 76.8620783,15.2543233 73.831945,15.2543233" id="Fill-26" fill="#0080FF" mask="url(#mask-4)"></path>
        </g>
    </g>
</svg>

<svg xmlns="http://www.w3.org/2000/svg" xmlns:xlink="http://www.w3.org/1999/xlink" width="110" height="19" viewBox="0 0 110 19">
  <desc>
    DigitalOcean Logo
  </desc>
  <defs>
    <path id="a" d="M18.54.161H0V18.7h18.54z"/>
    <path id="c" d="M0 18.722h110V.183H0z"/>
  </defs>
  <g fill="none" fill-rule="evenodd">
    <g transform="translate(0 .022)">
      <mask id="b" fill="#fff">
        <use xlink:href="#a"/>
      </mask>
      <path fill="#0080FF" d="M9.27 18.7v-3.59c3.81 0 6.755-3.77 5.3-7.776a5.38 5.38 0 0 0-3.205-3.205C7.36 2.676 3.59 5.62 3.59 9.429v.002H0C0 3.36 5.864-1.365 12.224.62a8.96 8.96 0 0 1 5.856 5.855c1.985 6.36-2.74 12.224-8.81 12.224" mask="url(#b)"/>
    </g>
    <path fill="#0080FF" d="M9.278 15.141h-3.58v-3.578h3.579zm-3.58 2.751h-2.75V15.14h2.75v2.75z"/>
    <path fill="#0080FF" d="M2.95 15.141H.643v-2.304l.002-.001H2.95zm24.73-8.905h1.054c1.173 0 2.14.23 2.872.686.813.49 1.225 1.423 1.225 2.772 0 1.39-.413 2.365-1.228 2.898-.702.464-1.662.7-2.854.7h-1.07zm5.323-.693c-1.061-.736-2.382-1.11-3.926-1.11h-3.36v10.66h3.36c1.54 0 2.861-.393 3.927-1.17.58-.411 1.036-.987 1.355-1.71.317-.718.478-1.566.478-2.519 0-.941-.16-1.778-.478-2.487-.32-.712-.775-1.271-1.356-1.664m4.173-1.241c-.323 0-.601.115-.825.34a1.08 1.08 0 0 0-.342.813q.001.486.34.827.34.34.827.34t.827-.34a1.13 1.13 0 0 0 .34-.827 1.08 1.08 0 0 0-.34-.812 1.13 1.13 0 0 0-.827-.34"/>
    <mask id="d" fill="#fff">
      <use xlink:href="#c"/>
    </mask>
    <path fill="#0080FF" d="M36.213 15.094h1.89V7.586h-1.89zm8.255-2.447c-.33.375-.754.557-1.296.557-.541 0-.963-.182-1.288-.556-.324-.373-.489-.867-.489-1.469 0-.611.165-1.112.489-1.487.32-.371.754-.56 1.288-.56.542 0 .966.183 1.296.56.329.376.496.876.496 1.487 0 .602-.167 1.096-.496 1.468m.496-4.434c-.57-.507-1.206-.802-1.894-.802-1.043 0-1.91.36-2.576 1.071-.675.705-1.017 1.613-1.017 2.697 0 1.06.337 1.964 1.003 2.69.67.701 1.542 1.057 2.59 1.057.728 0 1.355-.203 1.865-.603v.172c0 .623-.167 1.108-.496 1.44-.329.333-.784.502-1.354.502-.872 0-1.419-.343-2.084-1.242l-1.287 1.236.035.048c.278.39.703.772 1.265 1.135.562.361 1.269.545 2.1.545 1.121 0 2.029-.346 2.697-1.028.672-.685 1.013-1.603 1.013-2.727V7.586h-1.86zm3.476 6.881h1.89V7.586h-1.89zm.963-10.792q-.486.001-.825.34a1.08 1.08 0 0 0-.342.813q.001.486.34.827.34.34.827.34t.827-.34a1.13 1.13 0 0 0 .34-.827 1.08 1.08 0 0 0-.34-.812 1.13 1.13 0 0 0-.827-.34m5.067 1.254h-1.86v2.029h-1.08v1.721h1.08v3.12c0 .975.196 1.673.58 2.075.386.402 1.071.607 2.036.607.307 0 .616-.01.918-.03l.085-.006v-1.72l-.648.033q-.677 0-.893-.234c-.144-.158-.217-.493-.217-.994v-2.85h1.758V7.585h-1.758zm10.618 9.537h1.89V4.434h-1.89zm20.976-2.684c-.338.378-.684.706-.95.877q-.393.253-.98.253a1.72 1.72 0 0 1-1.369-.62c-.362-.416-.546-.95-.546-1.588s.181-1.17.54-1.583c.36-.415.804-.617 1.36-.617.61 0 1.25.379 1.8 1.029l1.25-1.198c-.815-1.06-1.853-1.553-3.093-1.553-1.037 0-1.937.378-2.672 1.123-.732.74-1.104 1.682-1.104 2.8s.371 2.061 1.102 2.806a3.63 3.63 0 0 0 2.674 1.123c1.368 0 2.472-.59 3.216-1.673zm3.625-2.008a1.86 1.86 0 0 1 .493-.89c.256-.252.59-.38.99-.38q.69 0 1.054.388c.224.238.35.535.376.882zm4.129-1.767a2.84 2.84 0 0 0-1.085-.894c-.45-.22-.976-.33-1.56-.33-1.056 0-1.918.389-2.566 1.157-.63.762-.948 1.709-.948 2.815 0 1.138.35 2.08 1.04 2.8.686.715 1.604 1.079 2.728 1.079 1.275 0 2.32-.516 3.108-1.532l.042-.055-1.232-1.184a5 5 0 0 1-.424.434 2.3 2.3 0 0 1-.55.405q-.422.21-.953.21c-.523 0-.957-.154-1.288-.458-.31-.284-.491-.667-.54-1.14h5.006l.017-.69c0-.488-.067-.958-.198-1.398a4.1 4.1 0 0 0-.597-1.22m3.901 3.591c.214-.15.517-.225.9-.225.455 0 .937.091 1.434.272v.736c-.41.382-.959.575-1.63.575q-.493 0-.756-.216a.67.67 0 0 1-.255-.546c0-.258.1-.453.307-.596m3.354-4.078c-.572-.488-1.364-.737-2.352-.737a3.8 3.8 0 0 0-1.748.408c-.492.25-.975.663-1.282 1.204l.019.023 1.21 1.158c.498-.795 1.052-1.07 1.787-1.07.394 0 .722.105.974.314.25.207.372.47.372.805v.365a4.8 4.8 0 0 0-1.39-.215c-.94 0-1.705.222-2.274.658-.575.442-.867 1.073-.867 1.878 0 .705.246 1.278.733 1.704.491.41 1.105.62 1.824.62s1.393-.29 2.004-.787v.619h1.86v-4.827c0-.914-.293-1.627-.87-2.12m8.137.147c-.526-.586-1.265-.884-2.198-.884-.749 0-1.358.216-1.813.64v-.464h-1.853v7.508h1.89v-4.141c0-.569.135-1.02.402-1.343.266-.321.632-.478 1.119-.478.428 0 .752.14.992.427.24.289.362.686.362 1.182v4.353H110V10.74c0-1.04-.267-1.862-.79-2.447m-49.851 3.932c.214-.15.517-.225.9-.225.455 0 .937.091 1.434.272v.736c-.41.382-.959.575-1.63.575q-.493 0-.757-.216a.67.67 0 0 1-.255-.546c0-.258.101-.453.308-.596m3.354-4.078c-.572-.488-1.364-.737-2.352-.737-.629 0-1.216.139-1.748.408-.492.25-.975.663-1.282 1.204l.019.023 1.21 1.158c.498-.795 1.052-1.07 1.787-1.07q.594 0 .974.314c.25.207.372.47.372.805v.365a4.8 4.8 0 0 0-1.39-.215c-.94 0-1.705.222-2.274.658-.575.442-.867 1.073-.867 1.878 0 .705.246 1.278.733 1.704.491.41 1.105.62 1.824.62s1.392-.29 2.003-.787v.619h1.86v-4.827c0-.914-.292-1.627-.869-2.12M73.832 6.2a3.563 3.563 0 0 0-3.559 3.559 3.563 3.563 0 0 0 3.559 3.559 3.563 3.563 0 0 0 3.559-3.56A3.563 3.563 0 0 0 73.83 6.2m0 9.054a5.5 5.5 0 0 1-5.494-5.495 5.5 5.5 0 0 1 5.495-5.496 5.5 5.5 0 0 1 5.495 5.496 5.5 5.5 0 0 1-5.495 5.495" mask="url(#d)"/>
  </g>
</svg>
